!! Stephen C. Foster, "Better Times are Coming"
!! from 'Stephen Foster Song Book' Dover Publications (New York) pp. 11-13
!! NOTE:  Leading and trailing bars of rest have been omitted.
**kern
*M2/4
*MM74
*C:
16g
16g
=1
8e
16g
16g
8e
16g
16g
=2
8f
16f
16g
8a
16a
16b
=3
8cc
16g
16g
8a
16g
16e
=4
8d
16g
16g
8c
16r
16g
=5
8e
16g
16g
8e
16g
16g
=6
16f
16f
8g
8.a
16b
=7
8cc
8g
8a
16g
16g
=8
8d
16g
16g
8c
16r
16cc
=9
8.cc
16cc
8.dd
16dd
=10
4.ee
16g
16g
=11
8e
16g
16g
8e
16g
16g
=12
8f
16f
16g
8a
16a
16b
=13
8cc
16g
16g
8a
16g
16e
=14
8d
16g
16g
8c
16r
16g
=15
8e
16g
16g
8e
16g
16g
=16
16f
16f
8g
8.a
16b
=17
8cc
8g
8a
16g
16g
=18
8d
16g
16g
8c
16r
16cc
=19
8.cc
16cc
8.dd
16dd
=20
4.ee
8r
=21
8.cc
16cc
8cc
16g
16g
=22
16a
16g
16a
16cc
8g
8e
=23
16f
16e
16f
16g
16a
16b
16cc;
16a
=24
16g
16ff
16.ee;
32dd
16dd
8.cc
=25
8.cc
16cc
8cc
16g
16g
=26
16a
16g
16a
16cc
8g
8e
=27
16f
16e
16f
16g
16a
16b
16cc;
16a
=28
16g
16ff
16.ee
32dd
16dd
8.cc
==
*-
